X:152
T:Portsmouth Harbour THO3.152
O:England;London
M:C
L:1/8
Z:vmp. Peter Dunk 2011.from a transcription by Fynn Titford-Mock 2006-9
B:Thompson's Compleat Collection of 200 Favourite Country Dances Vol. III.1765-72
Q:1/4=140
K:G
AB-Bc/d/ ecec|AB-Bc/d/ cAcA|AB-Bc/d/ ecec|BGAF G2 [G2G,2]:|
|:Bd-de/f/ gdgd|Bd-dc/B/ cAcA|Bd-de/f/ gdgd|BGAF G2 [G2G,2]:|

